app/assets/images/twemoji/hands.svg

<svg width="24" height="24" viewBox="0 0 24 24" fill="none" xmlns="http://www.w3.org/2000/svg">
<path d="M3.66667 16.4444H8.11111V22H3.66667V16.4444ZM15.8889 16.4444H20.3333V22H15.8889V16.4444Z" fill="#FFDC5D"/>
<path d="M20.3333 17.9556C20.3333 17.9556 18.6667 19.0667 15.8889 18.5111V15.7333H20.3333V17.9556ZM3.66667 17.9556C3.66667 17.9556 5.33333 19.0667 8.11111 18.5111V15.7333H3.66667V17.9556Z" fill="#F9CA55"/>
<path d="M4.21278 12.3356H8.65722V16.78H4.21278V12.3356ZM15.3367 12.0578H19.7811V16.5022H15.3367V12.0578Z" fill="#EF9645"/>
<path d="M2.20722 8.575C2.20722 8.575 2.20889 7.89444 2.88889 7.89611C3.57 7.89833 3.56778 8.57889 3.56778 8.57889L3.55722 11.7367C3.66556 11.6867 3.77889 11.6417 3.89778 11.6028L3.91167 7.22C3.91167 7.22 3.91389 6.53944 4.59334 6.54167C5.27334 6.54333 5.27167 7.22444 5.27167 7.22444L5.26 11.3467C5.37056 11.3367 5.48445 11.3289 5.59889 11.3233L5.61445 6.54444C5.61445 6.54444 5.61611 5.86389 6.29667 5.86667C6.97723 5.86889 6.97445 6.54944 6.97445 6.54944L6.95889 11.3272C7.07556 11.3339 7.18778 11.3456 7.3 11.3561L7.31389 6.89C7.31389 6.89 7.31611 6.20944 7.99556 6.21222C8.67556 6.21389 8.67278 6.89389 8.67278 6.89389L8.65945 11.6167L8.65778 11.995V12.3344C6.61667 12.3294 5.25056 14.0244 5.24445 15.7256C5.24445 16.0656 5.58445 16.0678 5.58445 16.0678C5.59 14.0244 6.955 12.6706 8.99667 12.6767L9.99723 10.35C9.99723 10.35 10.2167 9.70611 10.8617 9.92667C11.505 10.1444 11.2867 10.7894 11.2867 10.7894L10.7906 12.5144C10.5939 13.2 10.41 13.89 10.3133 14.5944C10.0367 16.5856 8.32389 18.1167 6.25834 18.1111C4.00556 18.1017 2.18334 16.2694 2.19056 14.0167C2.19111 13.8978 2.19834 13.7844 2.20945 13.6778L2.19167 13.6756L2.20722 8.575V8.575ZM21.7872 8.575C21.7872 8.575 21.7856 7.89444 21.1056 7.89611C20.4244 7.89833 20.4261 8.57889 20.4261 8.57889L20.4367 11.7367C20.3289 11.6867 20.215 11.6417 20.0967 11.6028L20.0828 7.22C20.0828 7.22 20.0806 6.53944 19.4011 6.54167C18.7206 6.54333 18.7222 7.22444 18.7222 7.22444L18.7344 11.3467C18.6244 11.3367 18.5106 11.3289 18.3956 11.3233L18.3806 6.54444C18.3806 6.54444 18.3783 5.86389 17.6978 5.86667C17.0172 5.86889 17.02 6.54944 17.02 6.54944L17.0356 11.3272C16.9189 11.3339 16.8067 11.3456 16.6944 11.3561L16.6806 6.89C16.6806 6.89 16.6778 6.20944 15.9983 6.21222C15.3183 6.21389 15.3211 6.89389 15.3211 6.89389L15.3344 11.6167L15.3361 11.995V12.3344C17.3772 12.3294 18.7433 14.0244 18.75 15.7256C18.75 16.0656 18.41 16.0678 18.41 16.0678C18.4039 14.0244 17.0389 12.6706 14.9978 12.6767L13.9972 10.35C13.9972 10.35 13.7783 9.70611 13.1328 9.92667C12.49 10.1444 12.7078 10.7894 12.7078 10.7894L13.2039 12.5144C13.4006 13.2 13.5844 13.89 13.6811 14.5944C13.9578 16.5856 15.67 18.1167 17.7361 18.1111C19.9889 18.1017 21.8117 16.2694 21.8039 14.0167C21.8033 13.8978 21.7961 13.7844 21.785 13.6778L21.8028 13.6756L21.7872 8.575V8.575Z" fill="#FFDC5D"/>
<path d="M15.0783 5.58778C14.96 5.58778 14.84 5.55 14.7394 5.47222C14.4961 5.28444 14.4517 4.93556 14.6394 4.69278L16.2944 2.55111C16.4806 2.30889 16.8306 2.26222 17.0733 2.45111C17.3167 2.63889 17.3611 2.98778 17.1733 3.23056L15.5183 5.37222C15.4094 5.51389 15.245 5.58778 15.0783 5.58778V5.58778ZM8.95611 5.58778C8.79 5.58778 8.62556 5.51333 8.51611 5.37167L6.86111 3.23056C6.67389 2.98778 6.71889 2.63889 6.96167 2.45111C7.20444 2.26389 7.55278 2.30833 7.74111 2.55111L9.39611 4.69278C9.58333 4.93556 9.53889 5.28444 9.29611 5.47222C9.19445 5.55056 9.075 5.58778 8.95611 5.58778V5.58778ZM12 5.33333C11.6933 5.33333 11.4444 5.08444 11.4444 4.77778V2.55556C11.4444 2.24889 11.6933 2 12 2C12.3072 2 12.5556 2.24889 12.5556 2.55556V4.77778C12.5556 5.08444 12.3072 5.33333 12 5.33333Z" fill="#5DADEC"/>
</svg>

<svg width="24" height="24" viewBox="0 0 24 24" fill="none" xmlns="http://www.w3.org/2000/svg">
    <path d="M3.667 16.444H8.11V22H3.667v-5.556zm12.222 0h4.444V22H15.89v-5.556z" fill="#FFDC5D"/>
    <path d="M20.333 17.956s-1.666 1.11-4.444.555v-2.778h4.444v2.223zm-16.666 0s1.666 1.11 4.444.555v-2.778H3.667v2.223z" fill="#F9CA55"/>
    <path d="M4.213 12.336h4.444v4.444H4.213v-4.444zm11.124-.278h4.444v4.444h-4.444v-4.444z" fill="#EF9645"/>
    <path d="M2.207 8.575s.002-.68.682-.679c.681.002.679.683.679.683l-.01 3.158c.108-.05.22-.095.34-.134l.014-4.383s.002-.68.681-.678c.68.001.679.682.679.682l-.012 4.123c.11-.01.224-.018.339-.024l.015-4.779s.002-.68.683-.677c.68.002.677.682.677.682l-.015 4.778c.117.007.229.019.341.03l.014-4.467s.002-.68.682-.678c.68.002.677.682.677.682l-.014 4.723-.001.378v.34c-2.041-.006-3.407 1.69-3.414 3.39 0 .34.34.343.34.343.006-2.044 1.371-3.397 3.413-3.391l1-2.327s.22-.644.865-.423c.643.217.425.862.425.862l-.496 1.725c-.197.686-.381 1.376-.478 2.08a4.085 4.085 0 0 1-4.055 3.517 4.084 4.084 0 0 1-4.067-4.094c0-.12.007-.233.018-.34l-.017-.001.015-5.101zm19.58 0s-.001-.68-.681-.679c-.682.002-.68.683-.68.683l.01 3.158a3.142 3.142 0 0 0-.34-.134l-.013-4.383s-.002-.68-.682-.678c-.68.001-.679.682-.679.682l.012 4.123a8.12 8.12 0 0 0-.338-.024l-.015-4.779s-.003-.68-.683-.677c-.68.002-.678.682-.678.682l.016 4.778c-.117.007-.23.019-.342.03l-.013-4.467s-.003-.68-.683-.678c-.68.002-.677.682-.677.682l.013 4.723.002.378v.34c2.041-.006 3.407 1.69 3.414 3.39 0 .34-.34.343-.34.343-.006-2.044-1.371-3.397-3.412-3.391l-1-2.327s-.22-.644-.865-.423c-.643.217-.425.862-.425.862l.496 1.725c.197.686.38 1.376.477 2.08a4.085 4.085 0 0 0 4.055 3.517 4.084 4.084 0 0 0 4.068-4.094c0-.12-.008-.233-.019-.34l.018-.001-.016-5.101z" fill="#FFDC5D"/>
    <path d="M15.078 5.588a.553.553 0 0 1-.439-.895l1.655-2.142a.554.554 0 1 1 .88.68l-1.656 2.141a.553.553 0 0 1-.44.216zm-6.122 0a.555.555 0 0 1-.44-.216L6.861 3.23a.556.556 0 0 1 .88-.68l1.655 2.142a.556.556 0 0 1-.44.895zM12 5.333a.556.556 0 0 1-.556-.555V2.556a.556.556 0 0 1 1.112 0v2.222a.555.555 0 0 1-.556.555z" fill="#5DADEC"/>
</svg>
